icons/Purse_2.svg

<svg width="24" height="24" viewBox="0 0 24 24" fill="none" xmlns="http://www.w3.org/2000/svg">
<path fill-rule="evenodd" clip-rule="evenodd" d="M8.25009,7.00003c0,-2.07107 1.67893,-3.75 3.75001,-3.75c2.0711,0 3.75,1.67893 3.75,3.75v1.25h2.25c0.3382,0 0.6346,0.22637 0.7236,0.55266l1.9665,7.21061c0.6506,2.3856 -1.1452,4.7367 -3.6179,4.7367h-10.14446c-2.47265,0 -4.26846,-2.3511 -3.61786,-4.7367l1.96654,-7.21061c0.08899,-0.32629 0.38536,-0.55266 0.72357,-0.55266h2.25zM12.0001,4.75003c-1.2426,0 -2.25001,1.00736 -2.25001,2.25v1.25h4.50001v-1.25c0,-1.24264 -1.0074,-2.25 -2.25,-2.25zM6.57294,9.75003l-1.81582,6.65797c-0.39035,1.4313 0.68713,2.842 2.17072,2.842h10.14446c1.4836,0 2.5611,-1.4107 2.1708,-2.842l-1.8159,-6.65797zM15,11.25c0.4142,0 0.75,0.3358 0.75,0.75c0,0.4142 -0.3358,0.75 -0.75,0.75h-5.99998c-0.41421,0 -0.75,-0.3358 -0.75,-0.75c0,-0.4142 0.33579,-0.75 0.75,-0.75z" fill="#002B51"/>
</svg>

<svg width="24" height="24" viewBox="0 0 24 24" fill="none" xmlns="http://www.w3.org/2000/svg">
<path fill-rule="evenodd" clip-rule="evenodd" d="M8.25009 7.00003C8.25009 4.92896 9.92902 3.25003 12.0001 3.25003C14.0712 3.25003 15.7501 4.92896 15.7501 7.00003V8.25003H18.0001C18.3383 8.25003 18.6347 8.4764 18.7237 8.80269L20.6902 16.0133C21.3408 18.3989 19.545 20.75 17.0723 20.75H6.92784C4.45519 20.75 2.65938 18.3989 3.30998 16.0133L5.27652 8.80269C5.36551 8.4764 5.66188 8.25003 6.00009 8.25003H8.25009V7.00003ZM14.2501 7.00003V8.25003H9.75009V7.00003C9.75009 5.75739 10.7575 4.75003 12.0001 4.75003C13.2427 4.75003 14.2501 5.75739 14.2501 7.00003ZM6.57294 9.75003L4.75712 16.408C4.36677 17.8393 5.44425 19.25 6.92784 19.25H17.0723C18.5559 19.25 19.6334 17.8393 19.2431 16.408L17.4272 9.75003H6.57294ZM9.00002 11.25C8.58581 11.25 8.25002 11.5858 8.25002 12C8.25002 12.4142 8.58581 12.75 9.00002 12.75H15C15.4142 12.75 15.75 12.4142 15.75 12C15.75 11.5858 15.4142 11.25 15 11.25H9.00002Z" fill="#002B51"/>
</svg>
